images/ico-bicro-emploi-prescripteur.svg

<svg xmlns="http://www.w3.org/2000/svg" width="25" height="25" fill="none" viewBox="0 0 25 25"><circle cx="17.5" cy="7.5" r="6.25" fill="#006ADC"/><path fill="#000638" fill-rule="evenodd" d="M5 4.86a1.14 1.14 0 1 0 0 2.28 1.14 1.14 0 0 0 0-2.28M3 6a2 2 0 1 1 4 0 2 2 0 0 1-4 0m8.543.904a.603.603 0 0 0-.612.594v.634c0 .25-.208.452-.465.452A.46.46 0 0 1 10 8.132v-.634C10 6.67 10.69 6 11.543 6h7.914C20.309 6 21 6.67 21 7.498v6.004c0 .827-.69 1.498-1.543 1.498h-7.914C10.691 15 10 14.33 10 13.502v-2.479c0-.25.208-.452.466-.452.257 0 .465.203.465.452v2.479c0 .328.274.594.612.594h7.914a.603.603 0 0 0 .612-.594V7.498a.603.603 0 0 0-.612-.594z" clip-rule="evenodd"/><path fill="#000638" fill-rule="evenodd" d="M3.397 8.995c-.248 0-.45.222-.45.473v3.692c.218.029.396.15.517.29.137.16.234.382.234.626v5.73c0 .119.076.199.19.199s.19-.08.19-.2v-4.001c0-.275.212-.498.474-.498h1.703c.262 0 .474.223.474.498v4.001c0 .12.076.2.19.2s.19-.08.19-.2V19.8l.03-2.847V9.559c0-.275.211-.498.473-.498h3.377a.1.1 0 0 0 .062-.023v-.007l-.008-.017-.018-.017-.006-.002H6.398l-.639.697a.46.46 0 0 1-.345.152.46.46 0 0 1-.343-.16l-.61-.689zM2 9.468C2 8.688 2.607 8 3.397 8h1.27c.132 0 .258.058.348.159l.41.464.431-.47A.46.46 0 0 1 6.197 8h4.821c.613 0 1.118.626.949 1.29a1.01 1.01 0 0 1-.978.766H8.086v6.905l-.03 2.847c0 .668-.501 1.192-1.137 1.192-.637 0-1.138-.526-1.138-1.195v-3.504h-.755v3.504c0 .67-.501 1.195-1.138 1.195s-1.137-.526-1.137-1.195v-5.662A.85.85 0 0 1 2 13.287zm13.296 4.568a.44.44 0 0 1 .513.127l5.066 5.974a.55.55 0 0 1-.024.725.438.438 0 0 1-.66-.025l-4.257-5.02v4.67c0 .283-.209.513-.467.513S15 20.77 15 20.487v-5.974c0-.21.117-.4.296-.477" clip-rule="evenodd"/><path fill="#000638" fill-rule="evenodd" d="M15.851 14.138a.55.55 0 0 1 .024.725l-5.066 5.974a.438.438 0 0 1-.66.025.55.55 0 0 1-.024-.725l5.066-5.974a.438.438 0 0 1 .66-.025" clip-rule="evenodd"/></svg>

<svg xmlns="http://www.w3.org/2000/svg" width="25" height="25" fill="none" viewBox="0 0 25 25"><circle cx="17.5" cy="7.5" r="6.25" fill="#006adc"/><path fill="#000638" fill-rule="evenodd" d="M5 4.859C4.37 4.859 3.859 5.37 3.859 6 3.859 6.63 4.37 7.141 5 7.141 5.63 7.141 6.141 6.63 6.141 6 6.141 5.37 5.63 4.859 5 4.859ZM3 6C3 4.895 3.895 4 5 4 6.105 4 7 4.895 7 6 7 7.105 6.105 8 5 8 3.895 8 3 7.105 3 6ZM11.543 6.904C11.205 6.904 10.931 7.17 10.931 7.498V8.132C10.931 8.381 10.723 8.584 10.466 8.584 10.208 8.584 10 8.381 10 8.132V7.498C10 6.67 10.691 6 11.543 6H19.457C20.309 6 21 6.67 21 7.498V13.502C21 14.33 20.309 15 19.457 15H11.543C10.691 15 10 14.33 10 13.502V11.023C10 10.774 10.208 10.571 10.466 10.571 10.723 10.571 10.931 10.774 10.931 11.023V13.502C10.931 13.83 11.205 14.096 11.543 14.096H19.457C19.795 14.096 20.069 13.83 20.069 13.502V7.498C20.069 7.17 19.795 6.904 19.457 6.904H11.543Z" clip-rule="evenodd"/><path fill="#000638" fill-rule="evenodd" d="M3.397 8.995C3.149 8.995 2.947 9.217 2.947 9.468V13.16C3.165 13.189 3.343 13.31 3.464 13.45 3.601 13.61 3.698 13.832 3.698 14.076V19.805C3.698 19.925 3.774 20.005 3.888 20.005 4.002 20.005 4.078 19.925 4.078 19.805V15.804C4.078 15.529 4.29 15.306 4.552 15.306H6.255C6.517 15.306 6.729 15.529 6.729 15.804V19.805C6.729 19.925 6.805 20.005 6.919 20.005 7.033 20.005 7.109 19.925 7.109 19.805V19.8L7.138 16.953V9.559C7.138 9.284 7.35 9.061 7.612 9.061H10.989C10.998 9.061 11.008 9.06 11.019 9.056 11.029 9.053 11.038 9.048 11.044 9.043 11.047 9.041 11.049 9.039 11.051 9.038L11.052 9.034C11.052 9.033 11.052 9.034 11.052 9.034 11.052 9.033 11.052 9.033 11.052 9.031 11.051 9.028 11.049 9.022 11.043 9.014 11.037 9.006 11.03 9 11.025 8.997 11.022 8.996 11.02 8.995 11.019 8.995 11.018 8.995 11.018 8.995 11.018 8.995H6.399L5.759 9.692C5.669 9.79 5.544 9.845 5.414 9.844 5.283 9.843 5.159 9.785 5.071 9.685L4.461 8.995H3.397ZM11.052 9.036C11.053 9.036 11.052 9.036 11.052 9.036V9.036ZM2 9.468C2 8.688 2.607 8 3.397 8H4.668C4.799 8 4.925 8.058 5.015 8.159L5.425 8.623 5.856 8.152C5.946 8.055 6.069 8 6.197 8H11.018C11.631 8 12.136 8.626 11.967 9.29 11.844 9.796 11.388 10.056 10.989 10.056H8.086V16.961L8.057 19.808C8.055 20.476 7.555 21 6.919 21 6.282 21 5.781 20.474 5.781 19.805V16.301H5.026V19.805C5.026 20.474 4.525 21 3.888 21 3.251 21 2.751 20.474 2.751 19.805V14.143C2.37 14.096 2 13.782 2 13.287V9.468ZM15.296 14.036C15.475 13.958 15.678 14.009 15.809 14.163L20.875 20.137C21.051 20.344 21.04 20.669 20.851 20.862 20.663 21.056 20.367 21.044 20.191 20.837L15.934 15.817V20.487C15.934 20.77 15.725 21 15.467 21 15.209 21 15 20.77 15 20.487V14.513C15 14.302 15.117 14.113 15.296 14.036Z" clip-rule="evenodd"/><path fill="#000638" fill-rule="evenodd" d="M15.8514 14.1378C16.0401 14.331 16.0505 14.6558 15.8746 14.8631L10.8087 20.8367C10.6329 21.044 10.3373 21.0555 10.1486 20.8622C9.95993 20.669 9.94952 20.3442 10.1254 20.1369L15.1913 14.1633C15.3671 13.956 15.6627 13.9445 15.8514 14.1378Z" clip-rule="evenodd"/></svg>
